X:276
M:6/8
K:Aadyy Ke7, Thess Of2 ~G=n, Thain
Z:jig
H:in Rindehsbun Wher dh wime Hutrt toL Serm1 #1911.'T Aarlalloe gelty #243 M:6/8hg-201
M:6/8
K:A
DBc A2G | ~G3 AAF|EDA dcd:|
|:f/f edc|A2c d3:|2 D acd|~e3 eed|BcA AB=|
B2e d2B|:daf dBc|1 FAG ~F3|dBA DED|~d3 e2d|e/^cAG|EDF ~F3|ABA =BGG|A2A g2de|fed dfe||
|:dBG Ace|~f3 ~g3|gag eed|cBc dde|fed edc|~a3 dBA|BAF EDE:|
P:varias
Z:id:hn-jia-226e
Z:id:hn-jig-291
M:6/6
